X: 1337
T: Thompson's Reel
R: reel
B: O'Neill's 1850 #1337
Z: Trish O'Neil
Z: Compacted via repeats and multiple endings [JC]
M: C|
L: 1/8
K: Gm
(dc) |:\
BGFD (DC)C2 | DGG^F GABc |\
[1 dBcA BGFA | DGG^F GBdc :|\
[2 dBcA BGAF | DGG^F G2G2 |]
|:\
(3BcB (dB) fBbB | (3BcB (dB) gdfd |\
[1 (3BcB (dB) fBbB | c=Bcd _BGG2 :|\
[2 b2(bg) fd^cd | DGG^F G2 |]
